X:49
T:I would but I dare not
S:John Moore's Book 1
Z:Transcribed by David Jacobs  April 2021
%%VWML: Moore1-4493-p31-0
F:http://www.vwml.org/record/Moore1/4493/p31
M:6/8
L:1/8
K:D
G/A/BB A/B/cc|B/c/dB cAA|G/A/BB cAA|BGGG3:|
|:GBdg3|eccc3|A^cea3|fddd3|GBdg3|eccd2c|BGG cAA|BGG G3:|]